CN4T1/180/aimg/queso.svg

<svg clip-rule="evenodd" fill-rule="evenodd" stroke-linejoin="round" stroke-miterlimit="2" viewBox="0 0 47 28" xmlns="http://www.w3.org/2000/svg"><path d="m0 21.939c-.136-1.51-.207-2.834-.383-4.146-.421-3.137-1.077-6.248-.74-9.451.084-.795-.062-1.626-.188-2.426-.043-.278-.297-.66-.542-.746-1.194-.416-2.417-.747-3.722-1.136-.02.14-.089.506-.116.874-.032.423.042.864-.045 1.272-.876 4.114-.061 8.048 1.167 11.963.674 2.15 2.145 3.237 4.569 3.796m16.108-20.541c-.029-.077-.057-.155-.085-.233-.356.046-.717.067-1.065.144-1.171.258-2.34.522-3.504.809-3.414.845-6.824 1.7-10.234 2.558-.966.243-1.716.71-1.689 1.856.052 2.19.013 4.39.203 6.569.222 2.539.64 5.061.992 7.587.124.89.493 1.289 1.489.851 2.296-1.007 4.637-1.91 6.937-2.906.265-.113.521-.53.56-.836.358-2.799.638-5.608 1.003-8.407.215-1.645.072-3.398 1.66-4.622 1.322-1.022 2.494-2.24 3.733-3.37m21.058-.446c-.478-.266-.667-.404-.877-.482-4.534-1.697-9.223-2.646-14.06-2.727-7.126-.119-14.25-.154-21.288 1.298-2.061.425-4.101.844-5.493 2.588-.253.318-.362 1.046-.172 1.368.642 1.086 3.142 1.862 4.363 1.544 4.596-1.2 9.194-2.398 13.802-3.552 1.083-.271 2.205-.401 3.318-.519.33-.034.687.192 1.008.291-1.296 1.31-2.474 2.465-3.599 3.668-.244.26-.3.695-.442 1.05.375.109.76.339 1.124.308 4.464-.376 8.938-.683 13.381-1.235 2.549-.317 5.182-.592 7.431-2.043.558-.36.952-.973 1.504-1.557m.307 1.304c-3.992 2.805-8.349 2.847-12.517 3.421-4.225.582-8.511.706-13.018 1.051-.073.34-.249 1.002-.347 1.676-.109.763-.142 1.537-.218 2.306-.319 3.195-.72 6.383-.921 9.585-.067 1.078.132 2.323.667 3.218.256.427 1.579.218 2.419.298.038.003.076.01.116.012 5.342.282 10.568-.438 15.664-1.992 1.64-.499 3.296-1.193 4.699-2.157 1.59-1.09 2.522-2.892 2.873-4.762.554-2.947.908-5.941 1.159-8.931.094-1.12-.336-2.283-.576-3.725m-27.412 22.276c-.217-1.848-.401-3.412-.589-5.012-2.825 1.107-5.625 2.185-8.407 3.311-.599.242-1.102.477-1.709.009-.289-.224-.712-.277-1.074-.409-2.142-.78-3.263-2.377-3.916-4.513-1.269-4.16-1.494-8.359-.799-12.621.209-1.283.447-2.587.904-3.794.241-.634.896-1.375 1.515-1.555 2.658-.777 5.345-1.525 8.072-1.986 5.442-.921 10.956-.697 16.453-.75 5.359-.052 10.544.753 15.611 2.472 1.104.374 1.653.941 2.106 2.116 1.409 3.667.383 7.248-.015 10.849-.272 2.45-1.051 4.763-2.672 6.699-1.488 1.777-3.571 2.595-5.689 3.177-5.428 1.493-10.949 2.373-16.612 2.017-1.019-.065-2.047-.01-3.179-.01" fill="#231f20" transform="translate(7.4455 2.831812)"/><path d="m0-21.849c.241 1.442.67 2.605.577 3.724-.252 2.99-.605 5.985-1.16 8.932-.351 1.869-1.283 3.671-2.873 4.761-1.403.964-3.059 1.659-4.698 2.158-5.096 1.553-10.323 2.274-15.665 1.992-.039-.002-.077-.009-.116-.013-.839-.079-2.163.13-2.419-.297-.535-.896-.734-2.141-.667-3.218.202-3.203.602-6.391.921-9.585.077-.769.109-1.543.219-2.307.097-.673.274-1.335.346-1.676 4.507-.344 8.794-.468 13.018-1.05 4.168-.574 8.525-.616 12.517-3.421" fill="#ffd908" transform="translate(44.918 26.937812)"/><path d="m0-1.504c-.552.584-.946 1.197-1.504 1.557-2.249 1.451-4.882 1.727-7.43 2.043-4.444.552-8.917.859-13.382 1.235-.364.032-.749-.199-1.124-.308.143-.355.198-.79.442-1.05 1.125-1.203 2.304-2.357 3.6-3.667-.322-.1-.679-.326-1.009-.291-1.112.118-2.235.247-3.317.518-4.608 1.154-9.206 2.353-13.802 3.552-1.222.319-3.721-.458-4.363-1.544-.19-.321-.082-1.05.172-1.367 1.392-1.744 3.431-2.163 5.492-2.589 7.038-1.452 14.163-1.417 21.288-1.297 4.837.081 9.527 1.029 14.061 2.726.209.078.398.216.876.482" fill="#fff572" transform="translate(44.611 5.287812)"/><path d="m0-20.344c-1.239 1.13-2.411 2.348-3.733 3.369-1.588 1.225-1.445 2.977-1.66 4.622-.365 2.8-.645 5.609-1.003 8.408-.039.305-.295.723-.56.836-2.3.996-4.641 1.898-6.937 2.906-.996.437-1.365.039-1.489-.852-.352-2.526-.77-5.047-.992-7.586-.19-2.179-.151-4.379-.203-6.57-.027-1.145.723-1.612 1.689-1.856 3.41-.857 6.82-1.712 10.234-2.557 1.164-.288 2.333-.552 3.504-.809.348-.078.71-.098 1.066-.145.027.078.055.156.084.234" fill="#e4b921" transform="translate(23.5534 24.574812)"/><path d="m0 17.905c-2.424-.559-3.895-1.646-4.569-3.796-1.228-3.915-2.043-7.849-1.167-11.963.087-.408.013-.849.045-1.272.027-.368.096-.734.116-.874 1.305.389 2.528.72 3.722 1.136.245.086.499.468.542.746.126.8.272 1.631.188 2.426-.337 3.203.319 6.314.74 9.451.176 1.312.247 2.636.383 4.146" fill="#ffd908" transform="translate(7.4455 6.865812)"/><path d="m0 5.34c5.389-.018 11.524-.324 16.64-2.182.636-.232 2.59-.297 2.854-.874.606-1.323-2.065-1.623-2.675-1.78-2.894-.747-6.012-.726-9.028-.743.888.151 2.025 1.026 2.162 2.034.221 1.624-1.957 1.959-3.136 2.214-1.372.297-6.093.047-6.696 1.574" fill="#fff" transform="translate(23.2526 2.292812)"/></svg>

<?xml version="1.0" encoding="UTF-8" standalone="no"?>
<!DOCTYPE svg PUBLIC "-//W3C//DTD SVG 1.1//EN" "http://www.w3.org/Graphics/SVG/1.1/DTD/svg11.dtd">
<svg width="100%" height="100%" viewBox="0 0 47 28" version="1.1" xmlns="http://www.w3.org/2000/svg" xmlns:xlink="http://www.w3.org/1999/xlink" xml:space="preserve" xmlns:serif="http://www.serif.com/" style="fill-rule:evenodd;clip-rule:evenodd;stroke-linejoin:round;stroke-miterlimit:2;">
    <g transform="matrix(1,0,0,1,-248,-240)">
        <g transform="matrix(1,0,0,1,176.918,-0.242188)">
            <g transform="matrix(1,0,0,1,78.5275,243.074)">
                <path d="M0,21.939C-0.136,20.429 -0.207,19.105 -0.383,17.793C-0.804,14.656 -1.46,11.545 -1.123,8.342C-1.039,7.547 -1.185,6.716 -1.311,5.916C-1.354,5.638 -1.608,5.256 -1.853,5.17C-3.047,4.754 -4.27,4.423 -5.575,4.034C-5.595,4.174 -5.664,4.54 -5.691,4.908C-5.723,5.331 -5.649,5.772 -5.736,6.18C-6.612,10.294 -5.797,14.228 -4.569,18.143C-3.895,20.293 -2.424,21.38 0,21.939M16.108,1.398C16.079,1.321 16.051,1.243 16.023,1.165C15.667,1.211 15.306,1.232 14.958,1.309C13.787,1.567 12.618,1.831 11.454,2.118C8.04,2.963 4.63,3.818 1.22,4.676C0.254,4.919 -0.496,5.386 -0.469,6.532C-0.417,8.722 -0.456,10.922 -0.266,13.101C-0.044,15.64 0.374,18.162 0.726,20.688C0.85,21.578 1.219,21.977 2.215,21.539C4.511,20.532 6.852,19.629 9.152,18.633C9.417,18.52 9.673,18.103 9.712,17.797C10.07,14.998 10.35,12.189 10.715,9.39C10.93,7.745 10.787,5.992 12.375,4.768C13.697,3.746 14.869,2.528 16.108,1.398M37.166,0.952C36.688,0.686 36.499,0.548 36.289,0.47C31.755,-1.227 27.066,-2.176 22.229,-2.257C15.103,-2.376 7.979,-2.411 0.941,-0.959C-1.12,-0.534 -3.16,-0.115 -4.552,1.629C-4.805,1.947 -4.914,2.675 -4.724,2.997C-4.082,4.083 -1.582,4.859 -0.361,4.541C4.235,3.341 8.833,2.143 13.441,0.989C14.524,0.718 15.646,0.588 16.759,0.47C17.089,0.436 17.446,0.662 17.767,0.761C16.471,2.071 15.293,3.226 14.168,4.429C13.924,4.689 13.868,5.124 13.726,5.479C14.101,5.588 14.486,5.818 14.85,5.787C19.314,5.411 23.788,5.104 28.231,4.552C30.78,4.235 33.413,3.96 35.662,2.509C36.22,2.149 36.614,1.536 37.166,0.952M37.473,2.256C33.481,5.061 29.124,5.103 24.956,5.677C20.731,6.259 16.445,6.383 11.938,6.728C11.865,7.068 11.689,7.73 11.591,8.404C11.482,9.167 11.449,9.941 11.373,10.71C11.054,13.905 10.653,17.093 10.452,20.295C10.385,21.373 10.584,22.618 11.119,23.513C11.375,23.94 12.698,23.731 13.538,23.811C13.576,23.814 13.614,23.821 13.654,23.823C18.996,24.105 24.222,23.385 29.318,21.831C30.958,21.332 32.614,20.638 34.017,19.674C35.607,18.584 36.539,16.782 36.89,14.912C37.444,11.965 37.798,8.971 38.049,5.981C38.143,4.861 37.713,3.698 37.473,2.256M10.061,24.532C9.844,22.684 9.66,21.12 9.472,19.52C6.647,20.627 3.847,21.705 1.065,22.831C0.466,23.073 -0.037,23.308 -0.644,22.84C-0.933,22.616 -1.356,22.563 -1.718,22.431C-3.86,21.651 -4.981,20.054 -5.634,17.918C-6.903,13.758 -7.128,9.559 -6.433,5.297C-6.224,4.014 -5.986,2.71 -5.529,1.503C-5.288,0.869 -4.633,0.128 -4.014,-0.052C-1.356,-0.829 1.331,-1.577 4.058,-2.038C9.5,-2.959 15.014,-2.735 20.511,-2.788C25.87,-2.84 31.055,-2.035 36.122,-0.316C37.226,0.058 37.775,0.625 38.228,1.8C39.637,5.467 38.611,9.048 38.213,12.649C37.941,15.099 37.162,17.412 35.541,19.348C34.053,21.125 31.97,21.943 29.852,22.525C24.424,24.018 18.903,24.898 13.24,24.542C12.221,24.477 11.193,24.532 10.061,24.532" style="fill:rgb(35,31,32);"/>
            </g>
            <g transform="matrix(1,0,0,1,116,267.18)">
                <path d="M0,-21.849C0.241,-20.407 0.67,-19.244 0.577,-18.125C0.325,-15.135 -0.028,-12.14 -0.583,-9.193C-0.934,-7.324 -1.866,-5.522 -3.456,-4.432C-4.859,-3.468 -6.515,-2.773 -8.154,-2.274C-13.25,-0.721 -18.477,0 -23.819,-0.282C-23.858,-0.284 -23.896,-0.291 -23.935,-0.295C-24.774,-0.374 -26.098,-0.165 -26.354,-0.592C-26.889,-1.488 -27.088,-2.733 -27.021,-3.81C-26.819,-7.013 -26.419,-10.201 -26.1,-13.395C-26.023,-14.164 -25.991,-14.938 -25.881,-15.702C-25.784,-16.375 -25.607,-17.037 -25.535,-17.378C-21.028,-17.722 -16.741,-17.846 -12.517,-18.428C-8.349,-19.002 -3.992,-19.044 0,-21.849" style="fill:rgb(255,217,8);"/>
            </g>
            <g transform="matrix(1,0,0,1,115.693,245.53)">
                <path d="M0,-1.504C-0.552,-0.92 -0.946,-0.307 -1.504,0.053C-3.753,1.504 -6.386,1.78 -8.934,2.096C-13.378,2.648 -17.851,2.955 -22.316,3.331C-22.68,3.363 -23.065,3.132 -23.44,3.023C-23.297,2.668 -23.242,2.233 -22.998,1.973C-21.873,0.77 -20.694,-0.384 -19.398,-1.694C-19.72,-1.794 -20.077,-2.02 -20.407,-1.985C-21.519,-1.867 -22.642,-1.738 -23.724,-1.467C-28.332,-0.313 -32.93,0.886 -37.526,2.085C-38.748,2.404 -41.247,1.627 -41.889,0.541C-42.079,0.22 -41.971,-0.509 -41.717,-0.826C-40.325,-2.57 -38.286,-2.989 -36.225,-3.415C-29.187,-4.867 -22.062,-4.832 -14.937,-4.712C-10.1,-4.631 -5.41,-3.683 -0.876,-1.986C-0.667,-1.908 -0.478,-1.77 0,-1.504" style="fill:rgb(255,245,114);"/>
            </g>
            <g transform="matrix(1,0,0,1,94.6354,264.817)">
                <path d="M0,-20.344C-1.239,-19.214 -2.411,-17.996 -3.733,-16.975C-5.321,-15.75 -5.178,-13.998 -5.393,-12.353C-5.758,-9.553 -6.038,-6.744 -6.396,-3.945C-6.435,-3.64 -6.691,-3.222 -6.956,-3.109C-9.256,-2.113 -11.597,-1.211 -13.893,-0.203C-14.889,0.234 -15.258,-0.164 -15.382,-1.055C-15.734,-3.581 -16.152,-6.102 -16.374,-8.641C-16.564,-10.82 -16.525,-13.02 -16.577,-15.211C-16.604,-16.356 -15.854,-16.823 -14.888,-17.067C-11.478,-17.924 -8.068,-18.779 -4.654,-19.624C-3.49,-19.912 -2.321,-20.176 -1.15,-20.433C-0.802,-20.511 -0.44,-20.531 -0.084,-20.578C-0.057,-20.5 -0.029,-20.422 0,-20.344" style="fill:rgb(228,185,33);"/>
            </g>
            <g transform="matrix(1,0,0,1,78.5275,247.108)">
                <path d="M0,17.905C-2.424,17.346 -3.895,16.259 -4.569,14.109C-5.797,10.194 -6.612,6.26 -5.736,2.146C-5.649,1.738 -5.723,1.297 -5.691,0.874C-5.664,0.506 -5.595,0.14 -5.575,0C-4.27,0.389 -3.047,0.72 -1.853,1.136C-1.608,1.222 -1.354,1.604 -1.311,1.882C-1.185,2.682 -1.039,3.513 -1.123,4.308C-1.46,7.511 -0.804,10.622 -0.383,13.759C-0.207,15.071 -0.136,16.395 0,17.905" style="fill:rgb(255,217,8);"/>
            </g>
            <g transform="matrix(1,0,0,1,94.3346,242.535)">
                <path d="M0,5.34C5.389,5.322 11.524,5.016 16.64,3.158C17.276,2.926 19.23,2.861 19.494,2.284C20.1,0.961 17.429,0.661 16.819,0.504C13.925,-0.243 10.807,-0.222 7.791,-0.239C8.679,-0.088 9.816,0.787 9.953,1.795C10.174,3.419 7.996,3.754 6.817,4.009C5.445,4.306 0.724,4.056 0.121,5.583" style="fill:white;"/>
            </g>
        </g>
    </g>
</svg>
